!!!!SEGMENT: pl-wtm--iii-41-948_mlynarski-emil--mazur.krn
!!!cenid: 18xx:4276
!!!COM: Młynarski, Emil
!!!COM-rismID: pe50043899
!!!CDT: 1870/07/18-1935/04/05
!!!CNT: Polish
!!!OTL: Mazur
!!!PDT: 1895
!!!AGN:
!!!SMS-siglum: PL-Wtm
!!!SMS-shelfmark: III.41.948
!!!SMS-shelfwork: W
!!!SMS-variant:
!!!SMS-altvar:
!!!NIFC-rismSourceID: 1001152291
!!!NIFC-rismChildID: 1001152291
!!!NIFC-islandoraID: pl-wtm:22958
!!!URL-pdf-islandora: https://repozytorium.nifc.pl/islandora/object/pl-wtm:22958/datastream/PDF/view
!!!URL-scan: https://polish.musicsources.pl/pl/lokalizacje/galeria/druki-muzyczne/17790/2 @EN{Scan on Polish Music Sources Website (Piano)} @PL{Skany w portalu Dziedzictwo Muzyki Polskiej w otwartym dostępie (Fortepian)}
!!!URL-scan: https://polish.musicsources.pl/pl/lokalizacje/galeria/druki-muzyczne/17790/8 @EN{Scan on Polish Music Sources Website (Violin)} @PL{Skany w portalu Dziedzictwo Muzyki Polskiej w otwartym dostępie (Skrzypce)}
!!!ONB-nifc: UWAGA: Partię skrzypiec należy wpisać na podstawie głosu skrzypiec, a nie linii pomocniczej w partii fortepianu. Fortepian: skany 0002-0006; Skrzypce skany 0008-0009


!!!AIN: 1 piano 1 violn
!!!key: G
**kern	**kern	**dynam	**kern	**fing	**dynam
*part2	*part2	*part2	*part1	*part1	*part1
*staff3	*staff2	*staff2/3	*staff1	*staff1	*
*I"PIANO.	*I"PIANO.	*	*I"Violino	*	*
*I'[pf]	*I'[pf]	*	*I'[vl]	*	*
*Ipiano	*Ipiano	*	*Ivioln	*	*
*ICklav	*ICklav	*	*ICstr	*	*
*clefF4	*clefG2	*	*clefG2	*	*
*k[f#]	*k[f#]	*	*k[f#]	*	*
*G:	*G:	*	*G:	*	*
*M3/4	*M3/4	*	*M3/4	*	*
=1	=1	=1	=1	=1	=1
*ped	*	*	*	*	*
!	!LO:TX:a:B:t=Tempo di Mazur.	!	!LO:TX:b:t=7	!	!
8.DL 8.DD/	2.r	f	0.r	.	.
16DJk 16DD/	.	.	.	.	.
4D 4DD/	.	.	.	.	.
4D 4DD^/	.	.	.	.	.
=2	=2	=2	=2	=2	=2
!	!	!LO:DY:a:rj	!	!	!
4e 4c 4A\	4aa 4ee 4cc 4a\	f	.	.	.
4e 4c 4A\	4aa 4ee 4cc 4a\	.	.	.	.
4e 4c 4A^\	4aa 4ee 4cc 4a^\	.	.	.	.
*Xped	*	*	*	*	*
=3	=3	=3	=3	=3	=3
*ped	*	*	*	*	*
8.DL 8.DD/	2.r	.	.	.	.
16DJk 16DD/	.	<	.	.	.
4D 4DD/	.	.	.	.	.
4D 4DD^/	.	.	.	.	.
=4	=4	=4	=4	=4	=4
4a 4e 4c\	4eee 4aa 4ee\	.	.	.	.
4a 4e 4c\	4eee 4aa 4ee\	.	.	.	.
4a 4e 4c^\	4eee 4aa 4ee^\	.	.	.	.
*Xped	*	*	*	*	*
=5	=5	=5	=5	=5	=5
*ped	*	*	*	*	*
8.DL 8.DD/	2.r	<	1.r	.	.
16DJk 16DD/	.	.	.	.	.
4D 4DD/	.	[	.	.	.
4D 4DD^/	.	.	.	.	.
*clefG2	*	*	*	*	*
!LO:LB:g=original	!LO:LB:g=original	!	!	!	!
=6	=6	=6	=6	=6	=6
*	*8va	*	*	*	*
4ee 4cc 4a\	4cccc 4eee 4ccc\	ff	.	.	.
2ee 2cc 2a 2g^\	2aaa 2eee 2ccc 2aa^\	.	.	.	.
*Xped	*X8va	*	*	*	*
*clefF4	*	*	*	*	*
=7	=7	=7	=7	=7	=7
*ped	*	*	*	*	*
4e 4c 4A\	4ccc 4ee 4cc\	.	2.r	.	.
2e 2c 2A 2G^\	2aa 2ee 2cc 2a^\	.	.	.	.
*Xped	*	*	*	*	*
=8	=8	=8	=8	=8	=8
*ped	*	*	*	*	*
4d 4c 4A 4F#\	4dd 4cc 4a\	.	4r	.	.
4F#: 4AA: 4DD;<:/	4ddd 4aa 4dd 4cc;\	sf	4r;	.	.
*Xped	*	*	*	*below	*
!	!	!	!	!	!LO:DY:rj
4r	4r	.	(4d 4dv^>/	0 2	f
=9	=9	=9	=9	=9	=9
*	*	*	*	*Xbelow	*
!	!	!	!LO:TX:t=[segno]:problem=znak segno na kresce taktowej	!	!
4GG 4GGG'/	4r	mf	8gL 8G/	3	<
.	.	.	16r	.	.
.	.	.	16f#'/K)	.	.
4B 4D'\	4g 4d'/	<	8g 8G'/	.	.
.	.	.	8a 8d'/	.	.
4d 4G'\	4b 4g'/	[[	8b 8d'/	.	.
.	.	.	8ccJ 8d'/	.	[[
=10	=10	=10	=10	=10	=10
*ped	*	*	*	*	*
4d 4B'\	4dd 4g'\	.	4dd 4du'/	.	.
!	!	!	!	!	!LO:DY:rj
2B: 2D: 2GG^:\	2dd 2g 2d^/	.	2gg 2b 2d 2Gu~/	.	sf
*Xped	*	*	*	*	*
=11	=11	=11	=11	=11	=11
*ped	*	*	*	*	*
4GG 4CC/	4r	.	4ee 4cc 4e 4Gv'/	.	.
!	!	!	!	!	!LO:DY:rj
2G 2E^\	2cc 2g 2c^/	.	2gg 2cc 2e 2Gu~/	.	sf
*Xped	*	*	*	*	*
!LO:LB:g=original	!LO:LB:g=original	!	!	!	!
=12	=12	=12	=12	=12	=12
*ped	*	*	*	*	*
4GG 4GGG/	4r	.	4dd 4d 4Gv'/	.	.
!	!	!	!	!	!LO:DY:rj
2D 2GG^/	2b 2g 2B^/	.	2b 2d 2Gu~/	.	sf
*Xped	*	*	*	*	*
!	!	!	!LO:LB:g=original	!	!
=13	=13	=13	=13	=13	=13
.	.	.	(>8qe/	.	.
2D 2DD/	4r	p	([4eeu\)	4	mf
.	4e 4c 4A/	.	8ee\L]	.	.
.	.	.	8dd\)	.	.
4r	4f# 4c 4A/	.	8cc~\	.	.
.	.	.	8a~\J	.	.
=14	=14	=14	=14	=14	=14
2GG 2GGG/	4r	.	8.g'/L	.	>
.	.	.	16b'/Jk	.	.
.	4g 4d 4B/	.	4dd\	.	.
4r	4b 4g 4d/	.	4b\	.	]]
=15	=15	=15	=15	=15	=15
2AA 2AAA/	4r	.	(8.a/L	0	.
.	.	.	16b'/Jk)	.	.
.	4g 4c#X 4A/	.	([2a/	.	.
!	!LO:TX:b:i:t=poco rit.:dur=4q:ext=ud:problem=text with extension lines	!	!	!	!
4r	4g 4c# 4A/	.	.	.	.
=16	=16	=16	=16	=16	=16
!	!	!	!LO:TX:b:i:t=poco rit.	!	!
2D 2DD/	4r	.	8.a/L]	2	.
.	.	.	16b'/Jk)	.	.
.	4f# 4e 4cn 4A/	<	((>2a/	.	<[
4r	4f# 4d 4c 4A/	[[	.	.	.
=17	=17	=17	=17	=17	=17
!	!LO:TX:a:i:t=a tempo.	!	!	!	!
4GG 4GGG/	4r	mf	8gL 8G/)	3	f
!	!	!	!LO:TX:a:i:t=a tempo	!	!
.	.	.	16r	.	.
.	.	.	16f#'/K)	.	.
4B 4D'\	4g 4d'/	<	8g 8G'/	.	<
.	.	.	8a 8d'/	.	.
4d 4G'\	4b 4g'/	[[	8b 8d'/	.	.
.	.	.	8ccJ 8d'/	.	[[
!LO:PB:g=original	!LO:PB:g=original	!	!	!	!
=18	=18	=18	=18	=18	=18
*ped	*	*	*	*	*
4d 4B\	4dd 4g'\	.	4dd 4d'/	.	.
2B: 2D: 2GG^:\	2dd 2g 2d^/	.	2gg 2b 2d 2G~/	.	sf
*Xped	*	*	*	*	*
=19	=19	=19	=19	=19	=19
*ped	*	*	*	*	*
4GG 4CC/	4r	.	4ee 4cc 4e 4G'/	.	.
2G 2E^\	2cc 2g 2c^/	.	2gg 2cc 2e 2G~/	.	sf
*Xped	*	*	*	*	*
!	!	!	!LO:LB:g=original	!	!
=20	=20	=20	=20	=20	=20
*ped	*	*	*	*	*
4GG 4GGG/	4r	.	4dd 4d 4G'/	.	.
!	!	!	!	!	!LO:DY:rj
2D 2GG^/	2b 2g 2B^/	.	2bb 2b 2d 2G/	.	sf
*Xped	*	*	*	*	*
=21	=21	=21	=21	=21	=21
2C#X 2CC#X/	4r	.	([4aa 4cc#X 4e 4Au/	.	.
.	4g 4e 4A/	.	8aa\L]	.	.
.	.	.	8gg\)	.	.
4AA 4AAA/	4g 4c#X 4A/	>	8ff#~\	.	.
.	.	.	8ee~\J	.	.
=22	=22	=22	=22	=22	=22
2D 2DD/	4r	.	8.dd\L	1	.
.	.	.	16dd'\Jk	.	.
.	4g 4d 4B/	]	(4.gg\	.	.
4r	4g 4d 4B/	.	.	.	.
.	.	.	8b\)	1	.
=23	=23	=23	=23	=23	=23
*	*	*	*	*below	*
2D 2DD/	4r	.	8a~/L	0	.
.	.	.	8b~/J	.	.
!	!	!	!LO:TUP:a	!	!
.	4g 4e 4cn/	.	(12ccn\L	.	.
.	.	.	12dd\	.	.
.	.	.	12cc\J	.	.
4r	4f# 4d 4c/	.	8.b/L	.	.
.	.	.	16a'/Jk)	.	.
=24	=24	=24	=24	=24	=24
4D 4GG/	2g 2d 2B/	.	4g/	.	.
!	!	!	!LO:TX:a:t=pizz.	!	!
4GG 4GGG/	.	.	4gg 4b 4d 4G/	.	sf
4r	4r	.	4r	.	.
!LO:LB:g=original	!LO:LB:g=original	!	!	!	!
=25||	=25||	=25||	=25||	=25||	=25||
*	*^	*	*	*	*
.	.	.	.	(>8qd/	.	.
*	*	*	*	*	*Xbelow	*
!	!	!	!LO:DY:rj	!LO:TX:a:c=rj:t=arco	!	!LO:DY:t=p con grazia
[2.D [2.DD/	4r	(2.A^\	p	(4.ff#\)	3	p
.	4f# 4d/	.	.	.	.	.
.	.	.	.	8ee\L)	.	.
.	4f# 4d/	.	.	8dd~\	.	.
.	.	.	.	8ee~\J	.	.
!	!	!	!	!LO:LB:g=original	!	!
=26	=26	=26	=26	=26	=26	=26
(2.D_ 2.DD/]	4r	2.A#X^\	.	8.ff#\L	.	.
.	.	.	.	16ee'\Jk	.	.
.	4f# 4d/	.	.	(4dd\	.	.
.	4f# 4d/	.	.	4cc#X\)	2	.
=27	=27	=27	=27	=27	=27	=27
(2.D_ 2.GG/)	4r	2.B^\	.	8.b\L	.	.
.	.	.	.	16cc#X'\Jk	.	.
.	4g 4d/	.	.	(4dd\	.	.
.	4g 4d/	.	.	4gg\)	3	.
=28	=28	=28	=28	=28	=28	=28
2.D] 2.DD/)	4r	2.An^\)	.	2.ff#\	.	<[
.	4f# 4d/	.	.	.	.	.
.	4f# 4d/	.	.	.	.	.
*	*v	*v	*	*	*	*
=29	=29	=29	=29	=29	=29
2C#X 2CC#X/	4r	.	(4.aa\	4	.
.	4a 4g 4e 4A/	.	.	.	.
.	.	.	8ee\L)	2	.
4r	4a 4g 4e 4A/	.	8ff#~\	.	.
.	.	.	8gg~\J	.	.
=30	=30	=30	=30	=30	=30
2D 2DD/	4r	.	8.ff#m\L	.	.
.	.	.	16ee'\Jk	.	.
.	4a 4f# 4d 4A/	.	(4dd'\	.	.
4r	4a 4f# 4d 4A/	.	4dd'\)	.	.
=31	=31	=31	=31	=31	=31
2AA#X 2AAA#X/	4r	.	(4.ff#\	.	mp
.	4f# 4e 4c#X 4F#/	.	.	.	.
.	.	.	8cc#X\L)	2	.
4r	4f# 4e 4c# 4F#/	.	8dd~\	.	.
.	.	.	8ee~\J	.	.
!LO:LB:g=original	!LO:LB:g=original	!	!	!	!
=32	=32	=32	=32	=32	=32
2BB 2BBB/	4r	.	8.ddM\L	.	.
.	.	.	16cc#X'\Jk	.	.
.	4f# 4d 4B 4F#/	.	(4b'\	.	.
4r	4f# 4d 4B 4F#/	.	4b'\)	.	.
!	!	!	!LO:LB:g=original	!	!
=33	=33	=33	=33	=33	=33
*	*	*	*	*below	*
([2AAAn/	4r	.	8.a/L	0	.
.	.	.	16b'/Jk	.	.
.	4g 4c#X 4A/	.	((2au/	.	.
8AAA/L]	4g 4c# 4A/	.	.	.	.
8EE/J	.	.	.	.	.
=34	=34	=34	=34	=34	=34
2AA/)	4r	.	8.b\L)	.	<
.	.	.	16ee'\Jk)	.	.
.	4g 4d 4B/	.	((2b\	.	.
4r	4g 4d 4B/	.	.	.	[[
=35	=35	=35	=35	=35	=35
*	*	*	*	*Xbelow	*
([2AA/	4r	.	8.aa\L)	0	.
.	.	.	16bb'\Jk)	2	.
.	4g 4c#X 4A/	.	((2aa\	.	.
8AA/L]	4g 4c# 4A/	.	.	.	.
8E/J	.	.	.	.	.
=36	=36	=36	=36	=36	=36
!	!LO:TX:b:i:t=rit.:dur=3q:ext=ud:problem=text with extension lines	!	!	!	!
2A\)	4r	.	8.bb\L)	.	>
!	!	!	!LO:TX:b:i:t=poco rit.	!	!
.	.	.	16eee'\Jk)	0	.
.	4g 4d 4B/	.	(4.aa\	1	.
4r	[4a 4g 4c#X [4A^>/	.	.	.	.
.	.	.	8a/)	0	]]
=37	=37	=37	=37	=37	=37
*	*^	*	*	*	*
*	*	*	*	*	*below	*
.	.	.	.	(>16qqd/LL	0	.
.	.	.	.	16qqa/JJ	0	.
*	*	*	*	*	*Xbelow	*
!	!LO:TX:a:i:t=a tempo	!	!	!LO:TX:b:i:t=a tempo	!	!
[2.D [2.DD/	(2.a] 2.A/]	4r	.	(4.fff#\)	3	.
.	.	4f# 4d\	.	.	.	.
.	.	.	.	8eee\L)	.	.
.	.	4f# 4d\	.	8ddd\	.	.
.	.	.	.	8eee\J	.	.
!LO:LB:g=original	!LO:LB:g=original	!	!	!	!	!
=38	=38	=38	=38	=38	=38	=38
.	.	.	.	(16qqddd\LL	.	.
.	.	.	.	16qqeee\JJ	.	.
(2.D_ 2.DD/]	2.a#X 2.A#X^/	4r	.	8.fff#\L)	.	.
.	.	.	.	16eee'\Jk	.	.
.	.	4f# 4d\	.	(4ddd\	.	.
.	.	4f# 4d\	.	4ccc#X\)	2	.
=39	=39	=39	=39	=39	=39	=39
(2.D_ 2.GG/)	2.b 2.B^/	4r	.	8.bb\L	.	.
.	.	.	.	16ccc#X'\Jk	.	.
.	.	4g 4d\	.	(4ddd\	.	.
.	.	4g 4d\	.	4ggg\)	3	.
!	!	!	!	!LO:LB:g=original	!	!
=40	=40	=40	=40	=40	=40	=40
2.D] 2.DD/)	2.an 2.An^/)	4r	.	2.fff#\	.	<[
.	.	4f# 4d\	.	.	.	.
.	.	4f# 4d\	.	.	.	.
*	*v	*v	*	*	*	*
=41	=41	=41	=41	=41	=41
2C#X 2CC#X/	4r	.	(4.aaa\	4	.
.	4a 4g 4e 4A/	.	.	.	.
.	.	.	8eee\L)	2	.
4r	4a 4g 4e 4A/	.	8fff#\	.	.
.	.	.	8ggg\J	.	.
=42	=42	=42	=42	=42	=42
2D 2DD/	4r	.	8.fff#m\L	.	.
.	.	.	16eee'\Jk	.	.
!	!LO:TX:b:Bi:t=molto dim. e rit.:problem=dynamics with extension lines	!LO:HP:t=molto dim. e rit.	!	!	!
.	4a 4f# 4d 4A/	>	(4ddd'\	.	.
4r	4a 4f# 4d 4A/	.	4ddd'\)	.	.
=43	=43	=43	=43	=43	=43
!	!	!	!	!	!LO:HP:t=dim. e ritard.
(2C#X 2CC#X/	4r	.	(4.aa\	0 4	>
.	4a 4e 4A/	.	.	.	.
.	.	.	8ee\L)	.	.
4AA 4AAA/	4g 4c#X 4A/	.	8ff#\	.	.
.	.	]]	8gg\J	.	.
=44	=44	=44	=44	=44	=44
2D 2DD/)	4r	pp	8ff#'\L	.	pp
!	!	!	!LO:TUP:a:problem=klamra łukowa	!	!
.	.	.	24ee\L	.	.
.	.	.	24ff#\	.	.
.	.	.	24ee\JJ	.	<
.	2f# 2d 2A/	.	2dd\	.	.
4r	.	.	.	.	[[
!LO:PB:g=original	!LO:PB:g=original	!	!	!	!
=45||	=45||	=45||	=45||	=45||	=45||
*	*	*	*^	*^	*
*	*	*	*	*	*below	*	*
!	!LO:TX:a:B:t=Tempo I.	!	!LO:TX:a:i:t=a tempo	!	!	!	!
8.DL 8.DD/	2.r	f	2.d^<T/	2.d\	2	0	ff
16DJk 16DD/	.	.	.	.	.	.	.
4D 4DD/	.	.	.	.	.	.	.
4D 4DD^/	.	.	.	.	.	.	.
=46	=46	=46	=46	=46	=46	=46	=46
!	!	!LO:DY:a:rj	!	!	!	!	!
4e 4cn 4A\	4aa 4ee 4ccn 4a\	f	2.a^<T/	2.a\	2	0	.
4e 4c 4A\	4aa 4ee 4cc 4a\	.	.	.	.	.	.
4e 4c 4A^\	4aa 4ee 4cc 4a^\	.	.	.	.	.	.
=47	=47	=47	=47	=47	=47	=47	=47
*	*	*	*	*	*Xbelow	*	*
8.DL 8.DD/	2.r	.	2.ddT/	2.d^\	1	0	.
16DJk 16DD/	.	<	.	.	.	.	.
4D 4DD/	.	.	.	.	.	.	.
4D 4DD^/	.	.	.	.	.	.	.
=48	=48	=48	=48	=48	=48	=48	=48
4a 4e 4c\	4eee 4aa 4ee\	.	2.aaT/	2.a^\	1	0	.
4a 4e 4c\	4eee 4aa 4ee\	.	.	.	.	.	.
4a 4e 4c^\	4eee 4aa 4ee^\	.	.	.	.	.	.
=49	=49	=49	=49	=49	=49	=49	=49
8.DL 8.DD/	2.r	<	2ddd/	2dd^\	4	1	.
16DJk 16DD/	.	.	.	.	.	.	.
4D 4DD/	.	.	.	.	.	.	.
4D 4DD^/	.	[[	[4aaTT/	[4a^\	1	0	.
*clefG2	*	*	*	*	*	*	*
!	!	!	!LO:LB:g=original	!	!	!	!
=50	=50	=50	=50	=50	=50	=50	=50
*	*8va	*	*	*	*	*	*
4ee 4cc 4a\	4cccc 4eee 4ccc\	ff	2aaTT/]	2a\]	.	.	.
2ee 2cc 2a 2g^\	2aaa 2ccc 2aa^\	.	.	.	.	.	.
.	.	.	[4dduTT/	[4d^\	1	0	.
*clefF4	*X8va	*	*	*	*	*	*
!LO:LB:g=original	!LO:LB:g=original	!	!	!	!	!	!
=51	=51	=51	=51	=51	=51	=51	=51
4e 4c 4A\	4ccc 4ee 4cc\	.	2ddTTT/]	2d\]	.	.	.
2e 2c 2A 2G^\	2aa 2cc 2a^\	.	.	.	.	.	.
*	*	*	*	*	*below	*	*
.	.	.	[4dTT/	[4d^\	2	0	.
*	*	*	*	*	*v	*v	*
=52	=52	=52	=52	=52	=52	=52
4d 4c 4A 4F#\	4dd 4cc 4a\	.	(<4dTTT/]	4d\]	.	.
.	.	.	16qqc/LL	.	.	.
.	.	.	16qqd/JJ)	.	.	.
*	*	*	*	*	*Xbelow	*
!	!	!	!LO:TX:a:t=G	!	!	!
4F#: 4AA: 4DD;<:/	4ddd 4aa 4dd 4cc;\	sf	4dd,\	4ryy	0 2	.
!	!	!	!LO:TX:t=P:problem=kreska taktowa podwójna	!	!	!
4r	4r	.	(4dv^/	(4d^\	0 2	f
*	*	*	*v	*v	*	*
=53	=53	=53	=53	=53	=53
!	!	!	!LO:TX:t=[coda]:problem=znak coda na kresce taktowej	!	!
4GG 4GGG/	4r	mf	8gL 8G/)	3	.
.	.	.	16rff	.	.
.	.	.	16f#'/K)	.	.
4B 4D'\	4g 4d'/	<	8g 8G'/	.	<
.	.	.	8a 8d'/	.	.
4d 4G'\	4b 4g'/	[[	8b 8d'/	.	.
.	.	.	8ccJ 8d'/	.	[[
=54	=54	=54	=54	=54	=54
*ped	*	*	*	*	*
4d 4B'\	4dd 4g'\	.	4dd 4d'/	.	.
!	!	!	!	!	!LO:DY:rj
2B: 2D: 2GG^:\	2dd 2g 2d^/	.	2gg 2b 2d 2Gu/	.	sf
*Xped	*	*	*	*	*
=55	=55	=55	=55	=55	=55
*ped	*	*	*	*	*
4GG 4CC/	4r	.	4ee 4cc 4e 4G'/	.	.
!	!	!	!	!	!LO:DY:rj
2G 2E^\	2cc 2g 2c^/	.	2gg 2cc 2e 2G/	.	sf
*Xped	*	*	*	*	*
=56	=56	=56	=56	=56	=56
*ped	*	*	*	*	*
4GG 4GGG/	4r	.	4dd 4d 4G'/	.	.
!	!	!	!	!	!LO:DY:rj
2D 2GG^/	2b 2g 2B^/	.	2b 2d 2G/	.	sf
*Xped	*	*	*	*	*
!LO:LB:g=original	!LO:LB:g=original	!	!	!	!
=57	=57	=57	=57	=57	=57
.	.	.	(>8qd/	.	.
!	!	!	!	!	!LO:DY:cj
2D 2DD/	4r	p	([4eeu\)	4	mf
.	4e 4c 4A/	.	8ee\L]	.	.
.	.	.	8dd\)	.	.
4r	4f# 4c 4A/	.	8cc~\	.	.
.	.	.	8a~\J	.	.
!	!	!	!LO:LB:g=original	!	!
=58	=58	=58	=58	=58	=58
2GG 2GGG/	4r	.	8.g/L	.	>
.	.	.	16b'/Jk	.	.
.	4g 4d 4B/	.	4dd\	.	.
4r	4b 4g 4d/	.	4b\	.	]]
=59	=59	=59	=59	=59	=59
*	*	*	*	*below	*
2AA 2AAA/	4r	.	(8.a/L	0	.
.	.	.	16b'/Jk)	.	.
.	4g 4c#X 4A/	.	([2a/	.	.
4r	4g 4c# 4A/	.	.	.	.
=60	=60	=60	=60	=60	=60
*	*	*	*	*Xbelow	*
!	!LO:TX:b:i:t=poco rit.	!	!LO:TX:b:i:t=poco rit.	!	!
2D 2DD/	4r	.	8.a/L]	2	p <
.	.	.	16b'/Jk)	.	.
.	4f# 4e 4cn 4A/	<	((>2a/	.	.
4r	4f# 4d 4c 4A/	[[	.	.	[[
=61	=61	=61	=61	=61	=61
!	!LO:TX:a:i:t=a tempo	!	!LO:TX:a:i:t=a tempo	!	!LO:DY:rj
4GG 4GGG/	4r	mf	8gL 8G/)	.	f
.	.	.	16r	.	.
.	.	.	16f#'/K)	.	.
4B 4D'\	4g 4d'/	<	8g 8G'/	.	.
.	.	.	8a 8d'/	.	<
4d 4G'\	4b 4g'/	[[	8b 8d'/	.	.
.	.	.	8ccJ 8d'/	.	[[
=62	=62	=62	=62	=62	=62
*ped	*	*	*	*	*
4d 4B'\	4dd 4g'\	.	4dd 4d'/	.	.
!	!	!	!	!	!LO:DY:rj
2B: 2D: 2GG^:\	2dd 2g 2d^/	.	2gg 2b 2d 2G/	.	sf
*Xped	*	*	*	*	*
!LO:LB:g=original	!LO:LB:g=original	!	!	!	!
=63	=63	=63	=63	=63	=63
*ped	*	*	*	*	*
4GG 4CC/	4r	.	4ee 4cc 4e 4G'/	.	.
2c 2G 2C^\	2ee 2g 2e^/	.	2gg 2cc 2e 2G/	.	sf
*Xped	*	*	*	*	*
=64	=64	=64	=64	=64	=64
*ped	*	*	*	*	*
4GG 4GGG/	4r	.	4dd 4d 4G'/	.	.
!	!	!	!	!	!LO:DY:rj
2B: 2D: 2GG^:\	2gg 2dd 2g^\	.	2bb 2b 2d 2G/	.	sf
*Xped	*	*	*	*	*
=65	=65	=65	=65	=65	=65
2C#X 2CC#X/	4r	.	([4aa 4cc#X 4e 4Au/	.	.
.	4g 4e 4A/	>	8aa\L]	.	.
.	.	.	8gg\)	.	.
4AA 4AAA/	4g 4c#X 4A/	.	8ff#~\	.	.
.	.	.	8ee~\J	.	.
!	!	!	!LO:LB:g=original	!	!
=66	=66	=66	=66	=66	=66
2D 2DD/	4r	]	8.dd\L	1	.
.	.	.	16dd'\Jk	.	.
.	4g 4d 4B/	.	(4.gg\	.	.
4r	4g 4d 4B/	.	.	.	.
.	.	.	8b\)	1	.
=67	=67	=67	=67	=67	=67
*	*	*	*	*below	*
2D 2DD/	4r	.	8a~/L	0	.
.	.	.	8b~/J	.	.
!	!	!	!LO:TUP:a	!	!
.	4g 4e 4cn/	.	(12ccn\L	.	.
.	.	.	12dd\	.	.
.	.	.	12cc\J	.	.
4r	4f# 4d 4c/	.	8.b/L	.	.
.	.	.	16a'/Jk)	.	.
=68	=68	=68	=68	=68	=68
4D 4GG/	2g 2d 2B/	.	4g/	.	.
!	!	!	!LO:TX:a:t=pizz	!	!
4GG 4GGG/	.	.	4gg 4b 4d 4G/	.	sf
4r	4r	.	4r	.	.
!LO:PB:g=original	!LO:PB:g=original	!	!	!	!
=69||	=69||	=69||	=69||	=69||	=69||
*k[]	*k[]	*	*k[]	*	*
!	!	!LO:DY:rj	!LO:TX:a:t=4	!	!
4GG 4CC/	8.cL 8.G 8.E/	ff	0.r	.	.
.	16cJk 16G 16E/	.	.	.	.
4GG 4CC/	4c 4G 4E/	.	.	.	.
4GG 4CC^/	4c 4G 4E^/	.	.	.	.
=70	=70	=70	=70	=70	=70
4GG 4CC/	4A 4F/	.	.	.	.
4GG 4CC/	4A 4F/	.	.	.	.
4GG 4CC^/	4B 4G 4F^/	.	.	.	.
=71	=71	=71	=71	=71	=71
4GG 4CC/	8.cL 8.G 8.E/	.	.	.	.
.	16cJk 16G 16E/	.	.	.	.
4GG 4CC/	4c 4G 4E/	.	.	.	.
4GG 4CC^/	4c 4G 4E^/	.	.	.	.
=72	=72	=72	=72	=72	=72
4GG 4CC/	4c 4A 4F/	.	.	.	.
4GG 4CC/	4c 4A 4F/	.	.	.	.
4GG 4CC^/	4d 4B 4F^/	.	.	.	.
=73	=73	=73	=73	=73	=73
[2.GG [2.CC^/	8.eL 8.c 8.G/	f	4r	.	.
.	16eJk 16c 16G/	.	.	.	.
*	*	*	*	*Xbelow	*
!	!	!	!LO:TX:a:t=E:rj	!	!
.	4e 4c 4G/	.	([2ggu^\	2	ff
.	4e 4c 4G^/	.	.	.	.
!LO:LB:g=original	!LO:LB:g=original	!	!	!	!
=74	=74	=74	=74	=74	=74
2.GG] 2.CC/]	4f 4c 4A^/	.	8.gg\L]	.	.
.	.	.	16aa'\Jk)	.	.
.	4f 4c 4A^/	.	[2gg\	.	.
.	4g 4d 4B^/	.	.	.	.
=75	=75	=75	=75	=75	=75
[2.GG [2.CC^/	8.eL 8.c 8.G/	.	4gg\]	.	.
.	16eJk 16c 16G/	.	.	.	.
.	4e 4c 4G/	.	([2ggg^\	2	.
.	4e 4c 4G^/	.	.	.	.
=76	=76	=76	=76	=76	=76
2.GG] 2.CC/]	4f 4c 4A^/	.	8.ggg\L]	.	.
.	.	.	16aaa'\Jk)	.	.
.	4f 4c 4A^/	.	[2ggg\	.	.
.	4g 4d 4B^/	.	.	.	.
!	!	!	!LO:LB:g=original	!	!
=77	=77	=77	=77	=77	=77
2C 2GG 2CC/	4r	p	8ggg\L]	.	.
.	.	.	(8aaa\	.	p
.	2g: 2e: 2c: 2G:/	.	8ggg\	.	.
.	.	.	8eee\	3	.
4r	.	.	8ccc\	.	.
.	.	.	8eee\J)	.	.
=78	=78	=78	=78	=78	=78
!	!	!	!LO:TUP:a:problem=klamra łukowa	!	!
2D 2GG 2CC/	4r	.	(12ddd\L	.	.
.	.	.	12eee\	.	.
.	.	.	12ddd\J	.	.
.	2g: 2f: 2B: 2G:/	.	4gg'\	1	.
4r	.	.	4gg'\)	.	.
!LO:LB:g=original	!LO:LB:g=original	!	!	!	!
=79	=79	=79	=79	=79	=79
2C 2GG 2CC/	4r	.	(8gg\L	1	.
.	.	.	8aa\	.	.
.	2g: 2e: 2c: 2G:/	.	8gg\	.	.
.	.	.	8ee\	.	.
4r	.	.	8cc\	.	.
.	.	.	8ee\J)	.	.
=80	=80	=80	=80	=80	=80
!	!	!	!LO:TUP:a:problem=klamra łukowa	!	!
2D 2GG 2CC/	4r	.	(12dd\L	.	.
.	.	.	12ee\	.	.
.	.	.	12dd\J	.	.
.	2g: 2f: 2B: 2G:/	.	4g'/	.	.
4r	.	.	4g'/)	.	.
=81	=81	=81	=81	=81	=81
[2.GG [2.CC^/	8.eL 8.c 8.G/	f	4r	.	.
.	16eJk 16c 16G/	.	.	.	.
!	!	!	!	!	!LO:DY:rj
.	4e 4c 4G'/	.	([2g [2Gu^>/	3	ff
.	4e 4c 4G^/	.	.	.	.
=82	=82	=82	=82	=82	=82
2.GG] 2.CC/]	4f 4c 4A^/	.	8.g]L 8.G/]	.	.
.	.	.	16aJk 16G'/)	.	.
.	4f 4c 4A^/	.	[2g [2G/	.	.
.	4g 4d 4B^/	.	.	.	.
!	!	!	!LO:LB:g=original	!	!
=83	=83	=83	=83	=83	=83
[2.GG [2.CC^/	8.eL 8.c 8.G/	.	4g] 4G/]	.	.
.	16eJk 16c 16G/	.	.	.	.
!	!	!	!LO:TX:a:t=D	!	!
.	4e 4c 4G/	.	(>[2gg [2G^>/	3	.
.	4e 4c 4G^/	.	.	.	.
!LO:LB:g=original	!LO:LB:g=original	!	!	!	!
=84	=84	=84	=84	=84	=84
!	!	!	!	!	!LO:DY:t=p. rit.
2.GG] 2.CC/]	4f 4c 4A^/	.	8.gg]L 8.G/]	.	p
.	.	.	16aaJk 16G'>/)	.	.
.	4f 4c 4A^/	.	[2gg [2G/	.	.
.	4g 4d 4B^/	.	.	.	.
=85	=85	=85	=85	=85	=85
*	*	*	*^	*	*
2C 2GG 2CC/	4r	p	8gg/L]	2.G\]	.	.
.	.	.	(8aau/	.	.	.
.	2g: 2e: 2c: 2G:/	.	8gg/	.	.	mp
*	*	*	*	*	*below	*
.	.	.	8ee/	.	3	.
4r	.	.	8cc/	.	.	.
.	.	.	8ee/J)	.	.	.
=86	=86	=86	=86	=86	=86	=86
!	!	!	!LO:TUP:a:problem=klamra łukowa	!	!	!
2D 2GG 2CC/	4r	.	(12dd/L	4G\	.	.
.	.	.	12ee/	.	.	.
.	.	.	12dd/J	.	.	.
*	*	*	*	*	*Xbelow	*
.	2g: 2f: 2B: 2G:/	.	4g 4G'/	2ryy	1	.
4r	.	.	4g 4G'/)	.	.	.
*	*	*	*v	*v	*	*
=87	=87	=87	=87	=87	=87
2C 2GG 2CC/	4r	.	(8g/L	.	.
.	.	.	8a/	.	.
.	2g: 2e: 2c: 2G:/	.	8g/	.	.
.	.	.	8e/	.	.
4r	.	.	8c/	.	.
.	.	.	8e/J)	.	.
=88	=88	=88	=88	=88	=88
2C 2GG 2CC/	4r	.	(8g/L	.	.
.	.	.	8a/	.	.
!	!LO:TX:b:i:t=poco rit&colon;	!	!LO:TX:b:i:t=poco rit.	!	!
.	4g: 4e: 4c: 4G:/	<	8g/	.	<
.	.	.	[8e/	.	.
4BB 4BBB/	4g#X: 4e: 4d: 4G#X:/	[[	8e/]	.	.
*	*	*	*	*below	*
!	!	!	!LO:TX:a:i:t=a t.	!	!
.	.	.	8g#X/J)	3	[[
!LO:PB:g=original	!LO:PB:g=original	!	!LO:PB:g=original	!	!
=89	=89	=89	=89	=89	=89
!	!LO:TX:b:i:t=espres.	!	!LO:TX:a:i:t=poco marcato	!	!
!	!LO:TX:a:i:t=a tempo	!	!LO:TX:a:t=G	!	!
2E 2AA/	(8ee\L	.	2.a/	.	mf
.	8ff\	.	.	.	.
.	8ee\	.	.	.	.
.	8cc\	.	.	.	.
!LO:S:s=2:note:problem=note-level slur	!	!	!	!	!
(4c (>4A [4E\	8a\	.	.	.	.
.	8cc\J)	.	.	.	.
=90	=90	=90	=90	=90	=90
!	!LO:TUP:a	!	!	!	!
2d 2G#X 2E\]))	(12b\L	.	[2e/	.	.
.	12cc\	.	.	.	.
.	12b\J	.	.	.	.
.	4e'/)	.	.	.	.
.	(>8qe/	.	.	.	.
4r	([4ee^\)	.	8.e,</L]	.	.
.	.	.	(16e/Jk	.	.
=91	=91	=91	=91	=91	=91
2E 2AA/	8ee\L]	.	2.a^>/)	.	.
.	8ff\	.	.	.	.
.	8ee\	.	.	.	.
.	8cc\	.	.	.	.
!LO:S:s=2:note:problem=note-level slur	!	!	!	!	!
(4c (>4A [4E\	8a\	.	.	.	.
.	8cc\J)	.	.	.	.
=92	=92	=92	=92	=92	=92
!	!LO:TUP:a	!	!	!	!
2d 2G#X 2E\]))	(12b\L	.	2.e/	.	.
.	12cc\	.	.	.	.
.	12b\J	.	.	.	.
.	4e'/)	.	.	.	.
.	(>8qe/	.	.	.	.
4r	([4ee^\)	.	.	.	.
=93	=93	=93	=93	=93	=93
2E 2AA/	8ee\L]	.	(2A/	1	.
.	8ff\	.	.	.	<
.	8ee\	.	.	.	.
.	8cc\)	.	.	.	.
*clefG2	*	*	*	*	*
[4a (>4e [4c/	(8ee\	.	8B/L	.	.
.	8gg\J	.	8c/J)	.	[[
!LO:LB:g=original	!LO:LB:g=original	!	!	!	!
=94	=94	=94	=94	=94	=94
2a] 2d 2c/])	8ff\L	.	(2d/	4	.
.	8gg\	.	.	.	.
.	8ff\	.	.	.	.
.	8dd\)	.	.	.	.
[4g (>4d [4B/	(8dd\	.	4g/)	0	.
.	8ff\J	.	.	.	.
=95	=95	=95	=95	=95	=95
2g] 2c 2B/])	8ee\L	.	[2.e/	3	>
.	8ff\	.	.	.	.
.	8ee\	.	.	.	.
.	8cc\)	.	.	.	.
(>[4f (>4c [4A/	(8cc\	.	.	.	.
.	8ee\J	.	.	.	.
=96	=96	=96	=96	=96	=96
2f] 2B 2A/])	8dd\L	.	4.e/]	.	.
.	8ee\	.	.	.	.
.	8dd\	.	.	.	.
.	8b\J)	.	(8e/L	1	]
.	.	.	(8qg/	.	.
4e 4B 4G#X/)	4r	.	8.f/)	.	.
.	.	.	16e/Jk)	.	.
*clefF4	*	*	*	*	*
=97	=97	=97	=97	=97	=97
2E 2AA/	(8eee\L	mf	2.a/	.	mp
.	8fff\	.	.	.	.
.	8eee\	.	.	.	.
.	8ccc\	.	.	.	.
!LO:S:s=2:note:problem=note-level slur	!	!	!	!	!
(4c (>4A [4E\	8aa\	.	.	.	.
.	8ccc\J)	.	.	.	.
=98	=98	=98	=98	=98	=98
!	!LO:TUP:a	!	!	!	!
2d 2G#X 2E\]))	(12bb\L	.	[2e/	.	.
.	12ccc\	.	.	.	.
.	12bb\J	.	.	.	.
.	4ee'\)	.	.	.	.
.	(>8qee/	.	.	.	.
4r	([4eee^\)	<	8.e,</L]	.	.
.	.	.	(16e/Jk	.	.
!LO:LB:g=original	!LO:LB:g=original	!	!LO:LB:g=original	!	!
=99	=99	=99	=99	=99	=99
2E 2AA/	8eee\L]	.	2.a^>/)	.	.
.	8fff\	.	.	.	.
.	8eee\	.	.	.	.
.	8ccc\	.	.	.	.
!LO:S:s=2:note:problem=note-level slur	!	!	!	!	!
(4c (>4A [4E\	8aa\	.	.	.	.
.	8ccc\J)	.	.	.	.
=100	=100	=100	=100	=100	=100
*ped	*	*	*	*	*
!	!LO:TUP:a	!	!	!	!
2d 2G#X 2E\]))	(12bb\L	.	2.e/	.	.
.	12ccc\	.	.	.	.
.	12bb\J	.	.	.	.
.	4ee'\)	.	.	.	.
.	(>8qee/	.	.	.	.
4r	4eee\)	.	.	.	.
=101	=101	=101	=101	=101	=101
*ped	*8va	*	*	*	*
[2.c: [<2.E: [2.AA:\	(8aaa^\L	f	[2.A/	.	.
.	8bbb\	.	.	.	.
.	8aaa\	.	.	.	.
.	8fff\	.	.	.	.
.	8eee\J)	.	.	.	.
*	*X8va	*	*	*	*
.	8r	.	.	.	.
=102	=102	=102	=102	=102	=102
!	!LO:TX:b:i:t=accelerando	!	!	!	!LO:HP:a
2.c_ 2.E_< 2.AA\_	(8aa^\L	.	2.A/_	.	<
.	8bb\	.	.	.	.
.	8aa\	.	.	.	.
.	8ff\	.	.	.	.
.	8ee\J)	.	.	.	.
.	8r	.	.	.	.
=103	=103	=103	=103	=103	=103
*	*	*	*	*	*^
!	!	!	!LO:TX:Bi:t=poco a poco accel. e cresc.:problem=dynamics with extension lines	!	!	!LO:HP:a:t=poco a poco accel. e cresc.
2.c] 2.E] 2.AA\]	(8a^/L	.	2.A/_	.	.	<
.	8b/	.	.	.	.	.
.	8a/	.	.	.	.	.
.	8f/	.	.	.	.	.
.	8e/J)	.	.	.	.	.
.	8r	.	.	.	.	.
!LO:LB:g=original	!LO:LB:g=original	!	!	!	!	!
=104	=104	=104	=104	=104	=104	104
(8A^\L	2.r	<	2.A/_	.	.	.
8B\	.	.	.	.	.	.
8A\	.	.	.	.	[	.
8F\	.	.	.	.	.	.
8E\J)	.	[	.	.	.	.
8r	.	.	.	.	.	.
=105	=105	=105	=105	=105	=105	=105
4A 4E 4AA\	4a 4e 4c/	sf	4A/]	.	.	.
4r	4r	.	(8A/L	.	.	.
.	.	.	8c/)	.	.	.
4r	4r	.	(8c'/	.	.	.
.	.	.	8e/J)	.	.	.
=106	=106	=106	=106	=106	=106	=106
2.r	2.r	.	(8e/L	.	.	.
.	.	.	8c/)	.	.	[
.	.	.	(8c/	.	.	.
.	.	.	8e/)	.	.	.
.	.	.	(8e/	.	.	.
.	.	.	8a/J)	4	.	.
*	*	*	*	*	*v	*v
!	!	!	!LO:LB:g=original	!	!
=107	=107	=107	=107	=107	=107
2.r	2.r	.	(8au/L	.	.
.	.	.	8e/)	.	.
.	.	.	(8e 8c/	.	.
.	.	.	8a 8e/)	.	.
.	.	.	(8a 8e/	.	.
.	.	.	8ccJ 8e/)	.	.
=108	=108	=108	=108	=108	=108
2.r	2.r	.	(8ccL 8e/	.	.
.	.	.	8a 8e/)	.	<
.	.	.	(8a 8e/	.	.
.	.	.	8cc 8e/)	.	.
.	.	.	(8cc 8e/	.	.
.	.	.	8eeJ 8cc/)	.	[[
!LO:PB:g=original	!LO:PB:g=original	!	!	!	!
=109	=109	=109	=109	=109	=109
*	*	*	*^	*	*
!	!LO:TX:a:i:t=animato	!	!LO:TX:a:i:t=animato:cj	!	!	!LO:DY:rj
2.e 2.A^\	4r	f	4aa 4cc 4e 4A\	4ryy	.	f
*	*	*	*	*	*Xbelow	*
.	(4a 4f#X/	.	2ee^/	(8.cc\L	0	.
.	.	.	.	16a\K	.	.
.	4b 4g#X/)	.	.	8.dd\	.	.
.	.	.	.	16b\Jk)	.	.
=110	=110	=110	=110	=110	=110	=110
2.e 2.A^\	4r	.	4aa 4cc\	4ryy	.	.
.	(4a 4f#X/	.	2ee^/	(8.cc\L	.	.
.	.	.	.	16a\K	.	.
.	4b 4g#X/)	.	.	8.dd\	.	.
.	.	.	.	16b\Jk)	.	.
!	!	!	!LO:LB:g=original	!	!	!
=111	=111	=111	=111	=111	=111	=111
2e 2A^\	(4a 4f#X/	.	2ee^/	(8.cc\L	.	.
.	.	.	.	16a\K	.	.
.	4b 4g#X/)	.	.	8.dd\	.	.
.	.	.	.	16b\Jk)	.	.
[4e [4A^\	(4a 4f#/	.	[4ee^/	(8.cc\L	.	.
.	.	.	.	16a\K	.	.
=112	=112	=112	=112	=112	=112	=112
4e] 4A\]	4b 4g#X/)	.	4ee/]	8.dd\	.	.
.	.	.	.	16b\Jk)	.	.
2e 2A^\	(4a 4f#X/	.	2ee^/	(8.cc\L	.	.
.	.	.	.	16a\K	.	.
.	4b 4g#/)	.	.	8.dd\	.	.
.	.	.	.	16b\Jk)	.	.
=113	=113	=113	=113	=113	=113	=113
*	*	*	*	*	*	*^
!	!	!	!	!	!	!	!LO:DY:rj
4E 4EE'/	2.cc#X 2.a 2.c#X^/	<[	2.eev/	2.cc#Xt^\	0	.	p
!	!	!	!	!	!	!	!LO:HP:a
4AA'/	.	.	.	.	.	<	<
4E 4EE'/	.	.	.	.	.	.	.
=114	=114	=114	=114	=114	=114	=114	=114
*	*	*	*	*	*^	*	*
*	*	*	*	*	*Xbelow	*above	*	*
4AA'/	2.ccn 2.a 2.cn^/	.	2.ee^/	2.ee^t>\	0	2	[	.
4E 4EE'/	.	.	.	.	.	.	.	.
4AA'/	.	.	.	.	.	.	.	.
*	*	*	*	*	*	*	*v	*v
!LO:LB:g=original	!LO:LB:g=original	!	!	!	!	!	!
=115	=115	=115	=115	=115	=115	=115	=115
*	*	*	*	*	*	*Xabove	*
!	!	!	!	!	!	!	!LO:DY:rj
4E 4EE'/	2.cc#X 2.a 2.c#X^/	.	2.ee/	2.cc#X^t\	0	2	p
4AA'/	.	.	.	.	.	.	<
4E 4EE'/	.	.	.	.	.	.	.
=116	=116	=116	=116	=116	=116	=116	=116
*	*	*	*	*	*	*above	*
4AA'/	2.ccn 2.a 2.cn^/	.	2.ee^/	2.ee^t>\	0	2	[
4E 4EE'/	.	.	.	.	.	.	.
4AA'/	.	.	.	.	.	.	.
*	*	*	*	*	*	*Xabove	*
*	*	*	*	*	*v	*v	*
*	*	*	*v	*v	*	*
!	!	!	!LO:LB:g=original	!	!
=117	=117	=117	=117	=117	=117
!	!	!LO:DY:cj	!	!	!LO:DY:rj
2.AA 2.DD^/	8.dL 8.c 8.F#X/	ff	(8dddL 8ddv\	.	ff
.	.	.	8dd 8d\)	.	.
.	16dJk 16c 16F#/	.	.	.	.
.	4d 4c 4F#/	.	8dd 8d'\	.	.
.	.	.	8ddd 8dd'\	.	.
.	4d 4c 4F#/	.	8ddd 8dd'\	.	.
.	.	.	8ddJ 8d'\	.	.
=118	=118	=118	=118	=118	=118
2.AA 2.DD^/	4e 4c 4G/	.	8ddL 8d'\	.	.
.	.	.	8ddd 8dd'\	.	.
.	2a 2e 2c^/	.	8ddd 8dd'\	.	.
.	.	.	8dd 8d'\	.	.
.	.	.	(8dd 8d\	.	.
.	.	.	8dddJ 8dd\)	.	.
=119	=119	=119	=119	=119	=119
2.AA 2.DD^/	8.dL 8.c 8.F#X/	.	(8dddL 8dd\	.	.
.	.	.	8dd 8d\)	.	.
.	16dJk 16c 16F#/	.	.	.	.
.	4d 4c 4F#/	.	8dd 8d'\	.	.
.	.	.	8ddd 8dd'\	.	.
.	4d 4c 4F#/	.	[8ddd 8dd\	.	.
*	*	*	*8va	*	*
.	.	.	8ddddJ 8ddd]\	.	.
=120	=120	=120	=120	=120	=120
2.AA 2.DD^/	4e 4c 4G/	.	8dddd 8ddd'\	.	.
*	*	*	*X8va	*	*
.	.	.	8r	.	.
.	2a 2e 2c^/	.	8dddL 8ddu'\	.	.
.	.	.	8dd 8d'\	.	.
.	.	.	8dd 8d'\	.	.
.	.	.	8dddJ 8dd'\	.	.
!LO:LB:g=original	!LO:LB:g=original	!	!LO:LB:g=original	!	!
=121	=121	=121	=121	=121	=121
!	!	!	!LO:TX:b:i:t=brillante	!	!
2AA 2DD/	2d 2c 2F#X/	.	(8dddL 8dd\	.	.
.	.	.	8ccc#X\	.	.
.	.	.	8cccn\	3	.
.	.	.	8aa\	.	.
4r	4r	.	8bb^<\	.	.
.	.	.	8aa\J	.	.
=122	=122	=122	=122	=122	=122
2.r	2.r	.	8gg\L	2	.
.	.	.	8ff#X\	.	.
.	.	.	8gg^<\	.	.
.	.	.	8ff#\	.	.
.	.	.	8ee\	.	.
.	.	.	8dd\J)	.	.
=123	=123	=123	=123	=123	=123
2.r	2.r	.	(8ee^<\L	4	.
.	.	.	8dd\	.	.
.	.	.	8cc\	.	.
.	.	.	8b\	.	.
.	.	.	8cc^<\	.	.
.	.	.	8b\J	.	.
=124	=124	=124	=124	=124	=124
*	*	*	*	*below	*
2.r	2.r	.	8a/L	0	.
.	.	.	8g/	.	.
.	.	.	8a^/	4	.
.	.	.	8g/	.	.
.	.	.	8f#X/	.	.
.	.	.	8e/J)	.	.
!	!	!	!LO:LB:g=original	!	!
=125	=125	=125	=125	=125	=125
!	!	!	!	!	!LO:DY:t=sempre ff
2.r	2.r	.	4d/	0	ff
.	.	.	(8c#X/L	1	.
.	.	.	8d/)	0	.
.	.	.	(8d/	2	.
.	.	.	8d/J)	0	.
=126	=126	=126	=126	=126	=126
2.r	2.r	.	(8e/L	3	.
.	.	.	8d/)	0	.
.	.	.	(8d/	2	.
.	.	.	8d/)	0	.
.	.	.	(8c#X/	1	.
.	.	.	8d/J)	0	.
!LO:LB:g=original	!LO:LB:g=original	!	!	!	!
=127	=127	=127	=127	=127	=127
2.r	2.r	.	(8d/L	2	.
.	.	.	8d/)	0	.
.	.	.	(8e/	3	.
.	.	.	8d/)	0	.
.	.	.	(8d/	2	.
.	.	.	8d/J)	0	.
=128	=128	=128	=128	=128	=128
2.r	2.r	.	(8c#X/L	1	.
.	.	.	8d/)	0	.
.	.	.	(8d/	2	.
.	.	.	8d/)	0	.
.	.	.	(8e/	3	.
.	.	.	8d/J)	0	.
!	!	!	!LO:LB:g=original	!	!
=129	=129	=129	=129	=129	=129
*	*	*	*^	*^	*
*	*	*	*	*	*below	*	*
4r	4r	.	2.d^/	2.dT\	2	0	.
4r	4r	.	.	.	.	.	.
*ped	*	*	*	*	*	*	*
!	!LO:TX:a:i:t=molto rit.	!LO:DY:cj	!	!	!	!	!
[4D [4AA [4DD^/	[4d [4c [4F#X^/	f	.	.	.	.	.
=130	=130	=130	=130	=130	=130	=130	=130
*	*	*	*	*	*Xbelow	*	*
2D] 2AA] 2DD/]	2d] 2c] 2F#/]	.	2.ddT/	2.d\	1	0	.
[4c [4A [4D^\	[4dd [4f#X [4d^/	.	.	.	.	.	.
*	*	*	*	*	*v	*v	*
*	*	*	*v	*v	*	*
=131	=131	=131	=131	=131	=131
.	.	.	(>8qd/	0	.
*	*	*	*	*Xbelow	*
!	!	!	!LO:TX:b:i:t=molto rit.	!	!
2c] 2A] 2D\]	2dd] 2f#] 2d/]	<	(2.ddd 2.ffTT\)	1 2	.
*clefG2	*	*	*	*	*
[4cc [4a [4d^/	[4ddd [4ff#X [4dd^\	.	.	.	.
.	.	.	8qccc/)	.	.
=132	=132	=132	=132	=132	=132
2cc] 2a] 2d/]	2ddd] 2ff#] 2dd\]	[	2dddv,\	.	.
*	*	*	*	*below	*
4r	4r	.	(4dv (>4d^/	2 0	.
*Xped	*	*	*	*	*
*clefF4	*	*	*	*Xbelow	*
!LO:PB:g=original	!LO:PB:g=original	!	!	!	!
=133||	=133||	=133||	=133||	=133||	=133||
*k[f#]	*k[f#]	*	*k[f#]	*	*
!	!LO:TX:a:B:t=Tempo I.	!	!LO:TX:a:B:t=włączyć od [segno] do [coda]	!	!
4GG 4GGG'/	4r	f	8gyyL 8Gyy/)	3	<
.	.	.	16ryy	.	.
.	.	.	16f#'yy/K)	.	.
4B 4D'\	4g 4d'/	<	8gyy 8G'yy/	.	.
.	.	.	8ayy 8d'yy/	.	.
4d 4G'\	4b 4g'/	[[	8byy 8d'yy/	.	.
.	.	.	8ccJyy 8d'yy/	.	[[
=134	=134	=134	=134	=134	=134
*ped	*	*	*	*	*
4d 4B'\	4dd 4g'\	.	4ddyy 4du'yy/	.	.
!	!	!	!	!	!LO:DY:rj
2B: 2D: 2GG^:\	2dd 2g 2d^/	.	2ggyy 2byy 2dyy 2Gu~yy/	.	sfy
*Xped	*	*	*	*	*
=135	=135	=135	=135	=135	=135
*ped	*	*	*	*	*
4GG 4CC/	4r	.	4eeyy 4ccyy 4eyy 4Gv'yy/	.	.
!	!	!	!	!	!LO:DY:rj
2G 2E^\	2cc 2g 2c^/	.	2ggyy 2ccyy 2eyy 2Gu~yy/	.	sfy
*Xped	*	*	*	*	*
=136	=136	=136	=136	=136	=136
*ped	*	*	*	*	*
4GG 4GGG/	4r	.	4ddyy 4dyy 4Gv'yy/	.	.
!	!	!	!	!	!LO:DY:rj
2D 2GG^/	2b 2g 2B^/	.	2byy 2dyy 2Gu~yy/	.	sfy
*Xped	*	*	*	*	*
!	!	!	!LO:LB:g=original	!	!
=137	=137	=137	=137	=137	=137
.	.	.	(>8qdyy/	.	.
2D 2DD/	4r	p	([y4eeyy\)	4	mfy
.	4e 4c 4A/	.	8eeyy\L]	.	.
.	.	.	8ddyy\)	.	.
4r	4f# 4c 4A/	.	8cc~yy\	.	.
.	.	.	8a~yy\J	.	.
=138	=138	=138	=138	=138	=138
2GG 2GGG/	4r	.	8.g'yy/L	.	>
.	.	.	16b'yy/Jk	.	.
.	4g 4d 4B/	.	4ddyy\	.	.
4r	4b 4g 4d/	.	4byy\	.	]]
!LO:LB:g=original	!LO:LB:g=original	!	!	!	!
=139	=139	=139	=139	=139	=139
2AA 2AAA/	4r	.	(8.ayy/L	0	.
.	.	.	16b'yy/Jk)	.	.
.	4g 4c#X 4A/	.	([y2ayy/	.	.
!	!LO:TX:b:i:t=poco rit.	!	!	!	!
4r	4g 4c# 4A/	.	.	.	.
=140	=140	=140	=140	=140	=140
!	!	!	!LO:TX:b:i:t=poco rit.	!	!
2D 2DD/	4r	.	8.ayy/L]	2	.
.	.	.	16b'yy/Jk)	.	.
.	4f# 4e 4cn 4A/	<	((>2ayy/	.	<[
4r	4f# 4d 4c 4A/	[[	.	.	.
=141	=141	=141	=141	=141	=141
!	!LO:TX:a:i:t=a tempo	!	!	!	!
4GG 4GGG/	4r	mf	8gyyL 8Gyy/)	3	fy
!	!	!	!LO:TX:a:i:t=a tempo	!	!
.	.	.	16ryy	.	.
.	.	.	16f#'yy/K)	.	.
4B 4D'\	4g 4d'/	<	8gyy 8G'yy/	.	<
.	.	.	8ayy 8d'yy/	.	.
4d 4G'\	4b 4g'/	[[	8byy 8d'yy/	.	.
.	.	.	8ccyyJ 8d'yy/	.	[[
=142	=142	=142	=142	=142	=142
*ped	*	*	*	*	*
4d 4B'\	4dd 4g\	.	4ddyy 4d'yy/	.	.
2B: 2D: 2GG^:\	2dd 2g 2d^/	.	2ggyy 2byy 2dyy 2G~yy/	.	sfy
*Xped	*	*	*	*	*
=143	=143	=143	=143	=143	=143
*ped	*	*	*	*	*
4GG 4CC/	4r	.	4eeyy 4ccyy 4eyy 4G'yy/	.	.
2G 2E^\	2cc 2g 2c^/	.	2ggyy 2ccyy 2eyy 2G~yy/	.	sfy
!	!	!	!LO:LB:g=original	!	!
*Xped	*	*	*	*	*
=144	=144	=144	=144	=144	=144
*ped	*	*	*	*	*
4GG 4GGG/	4r	.	4ddyy 4dyy 4G'yy/	.	.
!	!	!	!	!	!LO:DY:rj
2D 2GG^/	2b 2g 2B^/	.	2bbyy 2byy 2dyy 2Gyy/	.	sfy
*Xped	*	*	*	*	*
!LO:LB:g=original	!LO:LB:g=original	!	!	!	!
=145	=145	=145	=145	=145	=145
2C#X 2CC#X/	4r	.	(y[y4aayy 4cc#Xyy 4eyy 4Auyy/	.	.
.	4g 4e 4A/	.	8aayy\L]	.	.
.	.	.	8ggyy\)	.	.
4AA 4AAA/	4g 4c#X 4A/	>	8ff#~yy\	.	.
.	.	.	8ee~yy\J	.	.
=146	=146	=146	=146	=146	=146
2D 2DD/	4r	]	8.ddyy\L	1	.
.	.	.	16dd'yy\Jk	.	.
.	4g 4d 4B/	.	(4.ggyy\	.	.
4r	4g 4d 4B/	.	.	.	.
.	.	.	8byy\)	1	.
=147	=147	=147	=147	=147	=147
*	*	*	*	*below	*
2D 2DD/	4r	.	8a~yy/L	0	.
.	.	.	8b~yy/J	.	.
!	!	!	!LO:TUP:a	!	!
.	4g 4e 4cn/	.	(12ccnyy\L	.	.
.	.	.	12ddyy\	.	.
.	.	.	12ccyy\J	.	.
4r	4f# 4d 4c/	.	8.byy/L	.	.
.	.	.	16a'yy/Jk)	.	.
=148	=148	=148	=148	=148	=148
4D 4GG/	2g 2d 2B/	.	4gyy/	.	.
!	!	!	!LO:TX:a:t=pizz.	!	!
4GG 4GGG/	.	.	4ggyy 4byy 4dyy 4Gyy/	.	sfy
4r	4r	.	4ryy	.	.
=149||	=149||	=149||	=149||	=149||	=149||
*	*^	*	*	*	*
!	!	!	!	!LO:TX:a:t=arco	!	!
.	.	.	.	(>8qdyy/	.	.
*	*	*	*	*	*Xbelow	*
!	!	!	!LO:DY:rj	!	!	!LO:DY:t=p con grazia
[2.D [2.DD/	4r	(2.A^\	p	(4.ff#yy\)	3	py
.	4f# 4d/	.	.	.	.	.
!	!	!	!	!LO:TX:b:t=	!	!
.	.	.	.	8eeyy\L)	.	.
.	4f# 4d/	.	.	8dd~yy\	.	.
.	.	.	.	8ee~yy\J	.	.
!LO:LB:g=original	!LO:LB:g=original	!	!	!LO:LB:g=original	!	!
=150	=150	=150	=150	=150	=150	=150
(2.D_ 2.DD/]	4r	2.A#X^\	.	8.ff#yy\L	.	.
.	.	.	.	16ee'yy\Jk	.	.
.	4f# 4d/	.	.	(4ddyy\	.	.
.	4f# 4d/	.	.	4cc#Xyy\)	2	.
=151	=151	=151	=151	=151	=151	=151
(2.D_ 2.GG/)	4r	2.B^\	.	8.byy\L	.	.
.	.	.	.	16cc#X'yy\Jk	.	.
.	4g 4d/	.	.	(4ddyy\	.	.
.	4g 4d/	.	.	4ggyy\)	3	.
=152	=152	=152	=152	=152	=152	=152
2.D] 2.DD/)	4r	2.An^\)	.	2.ff#yy\	.	<[
.	4f# 4d/	.	.	.	.	.
.	4f# 4d/	.	.	.	.	.
*	*v	*v	*	*	*	*
=153	=153	=153	=153	=153	=153
2C#X 2CC#X/	4r	.	(4.aayy\	4	.
.	4a 4g 4e 4A/	.	.	.	.
.	.	.	8eeyy\L)	2	.
4r	4a 4g 4e 4A/	.	8ff#~yy\	.	.
.	.	.	8gg~yy\J	.	.
=154	=154	=154	=154	=154	=154
2D 2DD/	4r	.	8.ff#myy\L	.	.
.	.	.	16ee'yy\Jk	.	.
.	4a 4f# 4d 4A/	.	(4dd'yy\	.	.
4r	4a 4f# 4d 4A/	.	4dd'yy\)	.	.
=155	=155	=155	=155	=155	=155
2AA#X 2AAA#X/	4r	.	(4.ff#yy\	.	mpy
.	4f# 4e 4c#X 4F#/	.	.	.	.
.	.	.	8cc#Xyy\L)	2	.
4r	4f# 4e 4c# 4F#/	.	8dd~yy\	.	.
.	.	.	8ee~yy\J	.	.
!LO:PB:g=original	!LO:PB:g=original	!	!	!	!
=156	=156	=156	=156	=156	=156
2BB 2BBB/	4r	.	8.ddMyy\L	.	.
.	.	.	16cc#X'yy\Jk	.	.
.	4f# 4d 4B 4F#/	.	(4b'yy\	.	.
4r	4f# 4d 4B 4F#/	.	4b'yy\)	.	.
!	!	!	!LO:LB:g=original	!	!
=157	=157	=157	=157	=157	=157
*	*	*	*	*below	*
([2AAAn/	4r	.	8.ayy/L	0	.
.	.	.	16b'yy/Jk	.	.
.	4g 4c#X 4A/	.	((2auyy/	.	.
8AAA/L]	4g 4c# 4A/	.	.	.	.
8EE/J	.	.	.	.	.
=158	=158	=158	=158	=158	=158
2AA/)	4r	.	8.byy\L)	.	<
.	.	.	16ee'yy\Jk)	.	.
.	4g 4d 4B/	.	((2byy\	.	.
4r	4g 4d 4B/	.	.	.	[[
=159	=159	=159	=159	=159	=159
*	*	*	*	*Xbelow	*
([2AA/	4r	.	8.aayy\L)	0	.
.	.	.	16bb'yy\Jk)	2	.
.	4g 4c#X 4A/	.	((2aayy\	.	.
8AA/L]	4g 4c# 4A/	.	.	.	.
8E/J	.	.	.	.	.
=160	=160	=160	=160	=160	=160
!	!LO:TX:b:i:t=rit.:dur=3q:ext=ud:problem=text with extension lines	!	!	!	!
2A\)	4r	.	8.bbyy\L)	.	>
!	!	!	!LO:TX:b:i:t=poco rit.	!	!
.	.	.	16eee'yy\Jk)	0	.
.	4g 4d 4B/	.	(4.aayy\	1	.
4r	[4a 4g 4c#X [4A^>/	.	.	.	.
.	.	.	8ayy/)	0	]]
!LO:LB:g=original	!LO:LB:g=original	!	!	!	!
=161	=161	=161	=161	=161	=161
*	*^	*	*	*	*
*	*	*	*	*	*below	*
.	.	.	.	(>16qqdyy/LL	0	.
.	.	.	.	16qqayy/JJ	0	.
!	!LO:TX:a:i:t=a tempo	!	!	!LO:TX:b:i:t=a tempo	!	!
*	*	*	*	*	*Xbelow	*
[2.D [2.DD/	(2.a] 2.A/]	4r	.	(4.fff#yy\)	3	.
.	.	4f# 4d\	.	.	.	.
.	.	.	.	8eeeyy\L)	.	.
.	.	4f# 4d\	.	8dddyy\	.	.
.	.	.	.	8eeeyy\J	.	.
=162	=162	=162	=162	=162	=162	=162
.	.	.	.	(16qqdddyy\LL	.	.
.	.	.	.	16qqeeeyy\JJ	.	.
(2.D_ 2.DD/]	2.a#X 2.A#X^/	4r	.	8.fff#yy\L)	.	.
.	.	.	.	16eee'yy\Jk	.	.
.	.	4f# 4d\	.	(4dddyy\	.	.
.	.	4f# 4d\	.	4ccc#Xyy\)	2	.
=163	=163	=163	=163	=163	=163	=163
(2.D_ 2.GG/)	2.b 2.B^/	4r	.	8.bbyy\L	.	.
.	.	.	.	16ccc#X'yy\Jk	.	.
.	.	4g 4d\	.	(4dddyy\	.	.
.	.	4g 4d\	.	4gggyy\)	3	.
!	!	!	!	!LO:LB:g=original	!	!
=164	=164	=164	=164	=164	=164	=164
2.D] 2.DD/)	2.an 2.An^/)	4r	.	2.fff#yy\	.	<[
.	.	4f# 4d\	.	.	.	.
.	.	4f# 4d\	.	.	.	.
*	*v	*v	*	*	*	*
=165	=165	=165	=165	=165	=165
2C#X 2CC#X/	4r	.	(4.aaayy\	4	.
.	4a 4g 4e 4A/	.	.	.	.
.	.	.	8eeeyy\L)	2	.
4r	4a 4g 4e 4A/	.	8fff#yy\	.	.
.	.	.	8gggyy\J	.	.
!LO:LB:g=original	!LO:LB:g=original	!	!	!	!
=166	=166	=166	=166	=166	=166
2D 2DD/	4r	.	8.fff#myy\L	.	.
.	.	.	16eee'yy\Jk	.	.
!	!LO:TX:b:Bi:t=molto dim. e rit.:problem=dynamics with extension lines	!LO:HP:t=molto dim. e rit.	!	!	!
.	4a 4f# 4d 4A/	>	(4ddd'yy\	.	.
4r	4a 4f# 4d 4A/	.	4ddd'yy\)	.	.
=167	=167	=167	=167	=167	=167
!	!	!	!	!	!LO:HP:t=dim. e ritard.
(2C#X 2CC#X/	4r	.	(4.aayy\	0 4	>
.	4a 4e 4A/	.	.	.	.
.	.	.	8eeyy\L)	.	.
4AA 4AAA/	4g 4c#X 4A/	.	8ff#yy\	.	.
.	.	]]	8ggyy\J	.	.
=168	=168	=168	=168	=168	=168
2D 2DD/)	4r	pp	8ff#'yy\L	.	ppy
!	!	!	!LO:TUP:a:problem=klamra łukowa	!	!
.	.	.	24eeyy\L	.	.
.	.	.	24ff#yy\	.	.
.	.	.	24eeyy\JJ	.	.
.	2f# 2d 2A/	.	2ddyy\	.	<[
4r	.	.	.	.	.
=169||	=169||	=169||	=169||	=169||	=169||
*	*	*	*^	*^	*
*	*	*	*	*	*below	*	*
!	!LO:TX:a:B:t=Tempo I.	!	!LO:TX:a:i:t=a tempo	!	!	!	!
8.DL 8.DD/	2.r	f	2.d^<Tyy/	2.dyy\	2	0	ffy
16DJk 16DD/	.	.	.	.	.	.	.
4D 4DD/	.	.	.	.	.	.	.
4D 4DD^/	.	.	.	.	.	.	.
=170	=170	=170	=170	=170	=170	=170	=170
!	!	!LO:DY:a	!	!	!	!	!
4e 4cn 4A\	4aa 4ee 4ccn 4a\	f	2.a^<Tyy/	2.ayy\	2	0	.
4e 4c 4A\	4aa 4ee 4cc 4a\	.	.	.	.	.	.
4e 4c 4A^\	4aa 4ee 4cc 4a^\	.	.	.	.	.	.
!LO:LB:g=original	!LO:LB:g=original	!	!	!	!	!	!
=171	=171	=171	=171	=171	=171	=171	=171
*	*	*	*	*	*Xbelow	*	*
8.DL 8.DD/	2.r	.	2.ddTyy/	2.d^yy\	1	0	.
16DJk 16DD/	.	<	.	.	.	.	.
4D 4DD/	.	.	.	.	.	.	.
4D 4DD^/	.	.	.	.	.	.	.
=172	=172	=172	=172	=172	=172	=172	=172
4a 4e 4c\	4eee 4aa 4ee\	.	2.aaTyy/	2.a^yy\	1	0	.
4a 4e 4c\	4eee 4aa 4ee\	.	.	.	.	.	.
4a 4e 4c^\	4eee 4aa 4ee^\	.	.	.	.	.	.
=173	=173	=173	=173	=173	=173	=173	=173
8.DL 8.DD/	2.r	<	2dddyy/	2dd^yy\	4	1	.
16DJk 16DD/	.	.	.	.	.	.	.
4D 4DD/	.	.	.	.	.	.	.
4D 4DD/	.	[	[y4aaTTyy/	[y4a^yy\	1	0	.
*clefG2	*	*	*	*	*	*	*
!	!	!	!LO:LB:g=original	!	!	!	!
=174	=174	=174	=174	=174	=174	=174	=174
*	*8va	*	*	*	*	*	*
4ee 4cc 4a\	4cccc 4eee 4ccc\	ff	2aaTTyy/]	2a\yy]	.	.	.
2ee 2cc 2a 2g^\	2aaa 2ccc 2aa\	.	.	.	.	.	.
.	.	.	[y4dduTTyy/	[y4d^yy\	1	0	.
*clefF4	*X8va	*	*	*	*	*	*
=175	=175	=175	=175	=175	=175	=175	=175
4e 4c 4A\	4ccc 4ee 4cc\	.	2ddTTTyy/]	2d\yy]	.	.	.
2e 2c 2A 2G^\	2aa 2cc 2a^\	.	.	.	.	.	.
*	*	*	*	*	*below	*	*
.	.	.	[y4dTTyy/	[y4d^yy\	2	0	.
=176	=176	=176	=176	=176	=176	=176	=176
*	*	*	*	*	*Xbelow	*above	*
4d 4c 4A 4F#\	4dd 4cc 4a\	.	(<4dTTTyy/]	4dyy\]	.	.	.
.	.	.	16qqcyy/LL	.	.	.	.
.	.	.	16qqdyy/JJ)	.	.	.	.
!	!	!	!LO:TX:a:t=G	!	!	!	!
4F#: 4AA: 4DD;<:/	4ddd 4aa 4dd 4cc;\	sf	4ddyy\	4ryy	0 2	.	.
!	!	!	!LO:TX:t=P:problem=kreska taktowa podwójna	!	!	!	!
4r	4r	.	(y<(y4dvyy/	4d^yy\	2	0	fy
*	*	*	*	*	*v	*v	*
*	*	*	*v	*v	*	*
!LO:PB:g=original	!LO:PB:g=original	!	!	!	!
=177	=177	=177	=177	=177	=177
!	!	!	!LO:TX:a:B:t=Tempo I	!	!LO:DY:rj
4GG 4GGG/	4r	mf	8gL 8G/)	.	f
.	.	.	16r	.	.
.	.	.	16f#'/K)	.	.
4B 4D'\	4g 4d'/	<	8g 8G'/	.	.
.	.	.	8a 8d'/	.	.
4d 4G'\	4b 4g'/	[[	8b 8d'/	.	.
.	.	.	8ccJ 8d'/	.	.
=178	=178	=178	=178	=178	=178
*ped	*	*	*	*	*
4d 4B'\	4dd 4g'\	.	4dd 4d'/	.	.
!	!	!	!	!	!LO:DY:rj
2B: 2D: 2GG^:\	2dd 2g 2d^/	.	2gg 2b 2d 2Gu/	.	sf
*Xped	*	*	*	*	*
!	!	!	!LO:LB:g=original	!	!
=179	=179	=179	=179	=179	=179
*ped	*	*	*	*	*
4GG 4CC/	4r	.	4ee 4cc 4e 4G'/	.	.
!	!	!	!	!	!LO:DY:rj
2G 2E^\	2cc 2g 2c^/	.	2gg 2cc 2e 2G/	.	sf
*Xped	*	*	*	*	*
=180	=180	=180	=180	=180	=180
*ped	*	*	*	*	*
4GG 4GGG/	4r	.	4dd 4d 4G'/	.	.
!	!	!	!	!	!LO:DY:rj
2D 2GG^/	2b 2g 2B^/	.	2b 2d 2G/	.	sf
*Xped	*	*	*	*	*
=181	=181	=181	=181	=181	=181
.	.	.	(>8qdu/	.	.
2D 2DD/	4r	p	[(4ee\)	4	mf
.	4e 4c 4A/	.	8ee\L]	.	.
.	.	.	8dd\)	.	.
4r	4f# 4c 4A/	.	8cc~\	.	.
.	.	.	8a~\J	.	.
!LO:LB:g=original	!LO:LB:g=original	!	!	!	!
=182	=182	=182	=182	=182	=182
2GG 2GGG/	4r	.	8.g'/L	.	>
.	.	.	16b'/Jk	.	.
.	4g 4d 4B/	.	4dd\	.	.
4r	4b 4g 4d/	.	4b\	.	]
=183	=183	=183	=183	=183	=183
*	*	*	*	*below	*
2AA 2AAA/	4r	.	(8.a/L	0	.
.	.	.	16b'/Jk)	.	.
.	4g 4c#X 4A/	.	([2a/	.	.
4r	4g 4c# 4A/	.	.	.	.
=184	=184	=184	=184	=184	=184
!	!LO:TX:b:i:t=poco rit.	!	!	!	!
2D 2DD/	4r	.	8.a/L]	2	p <
!	!	!	!LO:TX:b:i:t=poco rit.	!	!
.	.	.	16b'/Jk)	.	.
.	4f# 4e 4cn 4A/	<	((>2a/	.	.
4r	4f# 4d 4c 4A/	[[	.	.	[[
!	!	!	!LO:LB:g=original	!	!
=185	=185	=185	=185	=185	=185
!	!LO:TX:a:i:t=a tempo	!	!LO:TX:a:i:t=a tempo	!	!LO:DY:rj
4GG 4GGG/	4r	mf	8gL 8G/)	.	f
.	.	.	16r	.	.
.	.	.	16f#'/K)	.	.
4B 4D'\	4g 4d'/	<	8g 8G'/	.	<
.	.	.	8a 8d'/	.	.
4d 4G'\	4b 4g'/	[[	8b 8d'/	.	.
.	.	.	8ccJ 8d'/	.	[[
=186	=186	=186	=186	=186	=186
*ped	*	*	*	*	*
4d 4B'\	4dd 4g'\	.	4dd 4d'/	.	.
!	!	!	!	!	!LO:DY:rj
2B: 2D: 2GG^:\	2dd 2g 2d^/	.	2gg 2b 2d 2Gu/	.	sf
*Xped	*	*	*	*	*
=187	=187	=187	=187	=187	=187
*ped	*	*	*	*	*
4GG 4CC/	4r	.	4ee 4cc 4e 4G'/	.	.
!	!	!	!	!	!LO:DY:rj
2c 2G 2C^\	2ee 2g 2e^/	.	2gg 2cc 2e 2G/	.	sf
*Xped	*	*	*	*	*
!LO:LB:g=original	!LO:LB:g=original	!	!	!	!
=188	=188	=188	=188	=188	=188
*ped	*	*	*	*	*
4GG 4GGG/	4r	.	4dd 4d 4G'/	.	.
!	!	!	!	!	!LO:DY:rj
2B: 2D: 2GG^:\	2gg 2dd 2g^\	.	2bb 2b 2d 2G/	.	sf
*Xped	*	*	*	*	*
=189	=189	=189	=189	=189	=189
(2C#X 2CC#X^/	4r	.	([4aa 4cc#X 4e 4Au/	.	.
.	4g 4e 4A/	>	8aa\L]	.	>
.	.	.	8gg\)	.	.
4AA 4AAA/	4g 4c#X 4A/	.	8ff#\	.	.
.	.	.	8ee\J	.	]
!	!	!	!LO:LB:g=original	!	!
=190	=190	=190	=190	=190	=190
*	*	*	*	*Xbelow	*
2D 2DD/)	4r	]	8.dd\L	1	.
.	.	.	16dd'\Jk	.	.
.	4g 4d 4B/	.	(4.gg\	.	.
4r	4g 4d 4B/	.	.	.	.
.	.	.	8b\)	1	.
=191	=191	=191	=191	=191	=191
2D 2DD/	4r	.	8a~/L	.	.
.	.	.	8b~/J	.	.
!	!	!	!LO:TUP:a	!	!
.	4g 4e 4cn/	.	(12ccn\L	.	<
.	.	.	12dd\	.	.
.	.	.	12cc\J	.	.
4r	4f# 4d 4c/	.	8.b/L	.	.
.	.	.	16a'/Jk)	.	[[
=192	=192	=192	=192	=192	=192
4.G 4.GG/	4r	.	4g'/	.	.
.	2g 2d 2B/	<[	2bb 2b 2d 2G/	.	sf
8F#L 8FF#'/	.	.	.	.	.
8E 8EE'/	.	.	.	.	.
8DJ 8DD'/	.	.	.	.	.
!LO:LB:g=original	!LO:LB:g=original	!	!	!	!
=193	=193	=193	=193	=193	=193
!	!	!	!	!	!LO:DY:a:rj
2C#X 2CC#X^/	4r	f	4aa 4cc#X 4e 4Au/	.	f
!	!	!	!LO:TX:b:i:t=poco rit.	!	!
.	4g 4e 4A/	.	(8aaa\L	3	.
.	.	.	8ggg\)	.	.
4AA 4AAA/	4g 4c#X 4A/	.	8fff#^\	2	.
.	.	.	8eee^\J	.	.
!	!	!	!LO:LB:g=original	!	!
=194	=194	=194	=194	=194	=194
!	!	!	!LO:TX:b:i:t=brillante\na tempo	!	!
2D 2DD/	4r	.	(16ddd^<\LL	3	.
.	.	.	16eee\	.	.
.	.	.	16ddd\	.	.
.	.	.	16bb\JJ)	.	.
!	!	!	!LO:TX:a:t=E	!	!
.	2g 2d 2B/	.	(16gg^<\LL	2	.
.	.	.	16aa\	.	.
.	.	.	16gg\	.	.
.	.	.	16ee\JJ	0	.
4r	.	.	16dd^<\LL	.	.
.	.	.	16ee\	4	.
.	.	.	16dd\	.	.
.	.	.	16b\JJ)	.	.
=195	=195	=195	=195	=195	=195
*	*	*	*^	*	*
.	.	.	(>8qd/	.	.	.
!	!LO:TX:b:i:t=colla parte	!	!	!	!	!LO:DY:t=ff pesante
2D 2DD/	4r	.	(8.aaL 8.dd\)	4ryy	1	ff
.	.	.	16bbJk 16dd'\)	.	.	.
.	.	.	(>8qd/	.	.	.
!	!	!	!LO:TUP:b:problem=klamra łukowa	!	!	!
.	4g 4e 4cn/	.	(12ccc\L)	4dd/	.	<
.	.	.	12ddd\	.	.	.
.	.	.	12ccc\J)	.	.	.
.	.	.	(>8qd/	.	.	.
4D 4DD/	4a 4f# 4c/	.	8bbL 8dd'\)	4ryy	.	.
.	.	.	8aaJ 8dd'\	.	.	[[
*	*	*	*v	*v	*	*
=196	=196	=196	=196	=196	=196
4GG 4GGG/	4r	.	4gg 4b 4d 4G/	.	.
!	!	!	!LO:N:n=1:vis=2:head=diam	!	!LO:DY:rj
2G 2D 2GG^/	2g 2d 2B^/	.	4ccc 4gg 4b 4d 4G/	.	sf
.	.	.	4r	.	.
==	==	==	==	==	==
*-	*-	*-	*-	*-	*-
!!!system-decoration: <str>{(klav)}
!!!RDF**kern: > = above
!!!RDF**kern: < = below
!!!ENC: Andrzej Gręziak
!!!END: 2022-12-02
!!!ENC: Andrzej Kubiczek
!!!END: 2022-12-08
!!!YEC: Copyright 2022 Narodowy Instytut Fryderyka Chopina (https://polishscores.org)
!!!YEM: License CC-BY-4.0 (https://creativecommons.org/licenses/by/4.0)
